flaticon/arrows/diagonal-1.svg

<svg xmlns="http://www.w3.org/2000/svg" width="32" height="32" viewBox="0 0 24 24">
    <path d="M 0 0 L 0 24 L 24 24 L 24 0 Z M 23.109375 23.109375 L 0.890625 23.109375 L 0.890625 0.890625 L 23.109375 0.890625 Z M 23.109375 23.109375"/>
    <path d="M 14.925781 15.554688 L 9.714844 15.554688 L 9.714844 16.445312 L 16.445312 16.445312 L 16.445312 9.714844 L 15.554688 9.714844 L 15.554688 14.925781 L 8.144531 7.515625 C 7.96875 7.339844 7.6875 7.339844 7.515625 7.515625 C 7.339844 7.6875 7.339844 7.96875 7.515625 8.144531 Z M 14.925781 15.554688"/>
</svg>

<svg xmlns="http://www.w3.org/2000/svg" width="32" height="32" viewBox="0 0 24 24">
    <path d="M0 0v24h24V0zm23.11 23.11H.89V.89h22.22zm0 0"/>
    <path d="M14.926 15.555H9.715v.89h6.73v-6.73h-.89v5.21l-7.41-7.41a.44.44 0 0 0-.63 0 .44.44 0 0 0 0 .63zm0 0"/>
</svg>
